X:1
T:Tra-Dy-Lio-Ar
M:3/4
L:1/4
Q:1/4=40
K:Hp
{g}e A {GdG}c | {g}e A {GdG}c | {g}e A {GdG}c | {g}c3/2 {G}B/ {G}A | [1 B2 {GdG}c | B2 {GdG}c | {g}B3/2 {d}B/ {e}B | {g}B3/2 {d}B/ {e}B :|
[2  B2 {GdG}c | B3/2 A/ {GdG}B | {g}A3/2 {d}A/ {e}A | {g}A3/2 {d}A/ {e}A ||